icons/notebook-server-16.svg

<?xml version="1.0" encoding="UTF-8"?><svg id="icons" xmlns="http://www.w3.org/2000/svg" viewBox="0 0 16 16"><path d="M3,3h1v1h-1v-1Zm2,1h1v-1h-1v1Zm2,0h1v-1h-1v1ZM15,1V6H2v3H6v1H1V1H15Zm-1,1H2v3H14V2ZM4,7h-1v1h1v-1Zm1,0v1h1v-1h-1Zm8,0v1h2v7h-2v1h3V7h-3Zm-2,1v7h1v1h-4v-1h-1v-1h1v-2h-1v-1h1v-2h-1v-1h1v-1h4v1h-1Zm-1,0h-1v7h1v-7Z"/><path fill="none" d="M0 0h16v16H0z"/></svg>

<svg xmlns="http://www.w3.org/2000/svg" viewBox="0 0 16 16"><path d="M3 3h1v1H3V3zm2 1h1V3H5v1zm2 0h1V3H7v1zm8-3v5H2v3h4v1H1V1h14zm-1 1H2v3h12V2zM4 7H3v1h1V7zm1 0v1h1V7H5zm8 0v1h2v7h-2v1h3V7h-3zm-2 1v7h1v1H8v-1H7v-1h1v-2H7v-1h1V9H7V8h1V7h4v1h-1zm-1 0H9v7h1V8z"/><path fill="none" d="M0 0h16v16H0z"/></svg>
